X:9029
T:La Porta Chopino
M:3/8
L:1/8
K:C
gfe|dg2|d/e/fg|f/e/dc|\
gfe|dg2|d/e/fg|c3:|
|:cBc|ed2|d/e/fg|f/e/dc|\
cBc|ed2|d/e/fg|c3:|
